src/icons/outline/symbols/list.svg

<svg width="24" height="24" viewBox="0 0 24 24" fill="none" xmlns="http://www.w3.org/2000/svg">
<g clip-path="url(#clip0_4787_777)">
<path d="M16.3623 16.7598C16.7835 16.7599 17.1327 17.0888 17.1328 17.4854C17.1328 17.8819 16.7835 18.2108 16.3623 18.2109H7.62793C7.20662 18.2109 6.85742 17.882 6.85742 17.4854C6.8575 17.0888 7.20667 16.7598 7.62793 16.7598H16.3623Z" fill="#3C3B44"/>
<path d="M16.3623 13.335C16.7835 13.3351 17.1328 13.664 17.1328 14.0605C17.1328 14.4571 16.7835 14.786 16.3623 14.7861H7.62793C7.20662 14.7861 6.85742 14.4572 6.85742 14.0605C6.85743 13.6639 7.20662 13.335 7.62793 13.335H16.3623Z" fill="#3C3B44"/>
<path d="M16.3623 9.90039C16.7835 9.90051 17.1327 10.2295 17.1328 10.626C17.1328 11.0226 16.7835 11.3514 16.3623 11.3516H7.62793C7.20662 11.3516 6.85742 11.0226 6.85742 10.626C6.8575 10.2294 7.20667 9.90039 7.62793 9.90039H16.3623Z" fill="#3C3B44"/>
<path d="M11.9951 3.73828C12.6219 3.73828 13.125 4.22226 13.125 4.80273C13.1247 5.38299 12.6115 5.86621 11.9951 5.86621V5.87598C11.3683 5.87598 10.8652 5.392 10.8652 4.81152C10.8654 4.23121 11.3787 3.74805 11.9951 3.74805V3.73828Z" fill="#3C3B44"/>
<path fill-rule="evenodd" clip-rule="evenodd" d="M12.0049 1C13.1866 1 14.2868 1.43511 15.1191 2.21875C15.7562 2.81856 16.1877 3.60251 16.3418 4.4248H19.2803L19.502 4.43555C20.0131 4.48346 20.484 4.69567 20.8525 5.03418C21.2738 5.42116 21.5 5.95352 21.5 6.51465V20.9102C21.5 21.4713 21.2636 21.994 20.8525 22.3906C20.4415 22.7872 19.8762 23 19.2803 23H4.71973C4.13406 23 3.55849 22.7775 3.14746 22.3906C2.73643 22.0036 2.5 21.4713 2.5 20.9102V6.51465C2.5 5.95352 2.73643 5.43084 3.14746 5.03418C3.55849 4.63759 4.13405 4.4248 4.71973 4.4248H7.6582C7.81233 3.59284 8.24382 2.81856 8.88086 2.21875C9.71314 1.43516 10.8233 1.00006 12.0049 1ZM14.0293 3.23438C12.9504 2.21895 11.0496 2.21895 9.9707 3.23438C9.43638 3.73743 9.12796 4.43441 9.12793 5.14062C9.12793 5.53722 8.77864 5.86611 8.35742 5.86621H4.71973C4.54504 5.86621 4.35964 5.9338 4.23633 6.05957C4.11303 6.18534 4.03125 6.34052 4.03125 6.51465V20.9102C4.03125 21.0843 4.10277 21.2491 4.23633 21.3652C4.36991 21.4813 4.54504 21.5586 4.71973 21.5586H19.2803C19.4652 21.5586 19.6404 21.491 19.7637 21.3652C19.887 21.2395 19.9688 21.0843 19.9688 20.9102V6.51465C19.9688 6.34053 19.8972 6.17566 19.7637 6.05957C19.6301 5.94348 19.4652 5.86621 19.2803 5.86621H15.6426C15.2214 5.86611 14.8721 5.53722 14.8721 5.14062C14.872 4.43441 14.5636 3.73743 14.0293 3.23438Z" fill="#3C3B44"/>
</g>
<defs>
<clipPath id="clip0_4787_777">
<rect width="24" height="24" fill="white"/>
</clipPath>
</defs>
</svg>

<svg xmlns="http://www.w3.org/2000/svg" width="24" height="24" fill="none" viewBox="0 0 24 24"><g fill="currentColor" clip-path="url(#a)"><path d="M16.362 16.76c.422 0 .77.329.77.725 0 .397-.349.726-.77.726H7.628c-.421 0-.77-.329-.77-.726s.349-.725.77-.725zm0-3.425c.422 0 .77.329.77.725 0 .397-.349.726-.77.726H7.628c-.421 0-.77-.329-.77-.726s.349-.725.77-.725zm0-3.435c.422 0 .77.33.77.726 0 .397-.349.725-.77.726H7.628c-.421 0-.77-.33-.77-.726 0-.397.349-.726.77-.726zm-4.367-6.162c.627 0 1.13.484 1.13 1.065 0 .58-.514 1.063-1.13 1.063v.01c-.627 0-1.13-.484-1.13-1.064s.514-1.064 1.13-1.064z"/><path fill-rule="evenodd" d="M12.005 1a4.5 4.5 0 0 1 3.114 1.219 4.1 4.1 0 0 1 1.223 2.206h2.938l.222.01a2.3 2.3 0 0 1 1.35.6c.422.386.648.919.648 1.48V20.91a2.05 2.05 0 0 1-.648 1.48c-.41.397-.976.61-1.572.61H4.72a2.32 2.32 0 0 1-1.573-.61 2.03 2.03 0 0 1-.647-1.48V6.515c0-.561.236-1.084.647-1.48.411-.397.987-.61 1.573-.61h2.938a4.06 4.06 0 0 1 1.223-2.206A4.54 4.54 0 0 1 12.005 1m2.024 2.234c-1.079-1.015-2.98-1.015-4.058 0a2.64 2.64 0 0 0-.843 1.907c0 .396-.35.725-.77.725H4.72a.7.7 0 0 0-.484.194.65.65 0 0 0-.205.455V20.91c0 .174.072.34.205.455a.76.76 0 0 0 .484.194h14.56c.185 0 .36-.068.484-.194a.65.65 0 0 0 .205-.455V6.515a.6.6 0 0 0-.205-.455.74.74 0 0 0-.484-.194h-3.637c-.422 0-.77-.329-.77-.725a2.65 2.65 0 0 0-.844-1.907" clip-rule="evenodd"/></g><defs><clipPath id="a"><path fill="currentColor" d="M0 0h24v24H0z"/></clipPath></defs></svg>
